pix_core/e/paste_text.svg

<!DOCTYPE svg PUBLIC "-//W3C//DTD SVG 1.1//EN" "http://www.w3.org/Graphics/SVG/1.1/DTD/svg11.dtd" [
	<!ENTITY ns_flows "http://ns.adobe.com/Flows/1.0/">
]><svg xmlns="http://www.w3.org/2000/svg" width="16" height="16" viewBox="0 0 16 16" preserveAspectRatio="xMinYMid meet" overflow="visible"><path d="M12 5v-2.5c0-.3-.2-.5-.5-.5h-3.5v-1c0-.6-.5-1-1-1h-2c-.5 0-1 .4-1 1v1h-3.5c-.3 0-.5.2-.5.5v10c0 .3.2.5.5.5h4.5v3h7l3-3v-8h-3zm-7-4h2v1h-2v-1zm-3 3v-1h8v1h-8zm10 10.6v-1.6h1.6l-1.6 1.6zm2-2.6h-3v.8s-.1 0-.1 0c-.1-.1-.1-.1-.2-.2s0-.2 0-.5v-4.1h.4c.2 0 .4 0 .5.1.2.1.3.2.4.3s.2.4.3.7h.1v-1.4h-4.7v1.4h.1c.1-.4.2-.7.5-.9.1-.1.4-.2.7-.2h.4v4.1c0 .3 0 .4 0 .5 0 .1-.1.2-.2.2-.1.1-.2.1-.4.1h-.1v.1h2.3v2h-5v-9h8v6z" fill="#999"/></svg>

<!DOCTYPE svg PUBLIC "-//W3C//DTD SVG 1.1//EN" "http://www.w3.org/Graphics/SVG/1.1/DTD/svg11.dtd" [
	<!ENTITY ns_flows "http://ns.adobe.com/Flows/1.0/">
]><svg xmlns="http://www.w3.org/2000/svg" width="16" height="16" viewBox="0 0 16 16" preserveAspectRatio="xMinYMid meet" overflow="visible"><path d="M12 5V2.5c0-.3-.2-.5-.5-.5H8V1c0-.6-.5-1-1-1H5c-.5 0-1 .4-1 1v1H.5c-.3 0-.5.2-.5.5v10c0 .3.2.5.5.5H5v3h7l3-3V5h-3zM5 1h2v1H5V1zM2 4V3h8v1H2zm10 10.6V13h1.6L12 14.6zm2-2.6h-3v.8h-.1l-.2-.2V8h.4c.2 0 .4 0 .5.1.2.1.3.2.4.3s.2.4.3.7h.1V7.7H7.7v1.4h.1c.1-.4.2-.7.5-.9.1-.1.4-.2.7-.2h.4v4.6c0 .1-.1.2-.2.2-.1.1-.2.1-.4.1h-.1v.1H11v2H6V6h8v6z" fill="#999"/></svg>
